.local/share/icons/Gruvbox-Plus-Dark/mimetypes/scalable/application-x-webarchive.svg

<svg width="256" height="256" viewBox="0 0 256 256" fill="none" xmlns="http://www.w3.org/2000/svg">
<g clip-path="url(#clip0)">
<g opacity="0.4" filter="url(#filter0_f)">
<path fill-rule="evenodd" clip-rule="evenodd" d="M102.816 18.4131H58.497H58.4969C49.5865 18.4131 42.4131 25.5865 42.4131 34.497V227.503C42.4131 236.413 49.5865 243.587 58.4969 243.587H58.5858H203.252H203.34C212.251 243.587 219.424 236.413 219.424 227.503L219.424 227.459L219.424 34.497C219.424 25.5865 212.251 18.4131 203.34 18.4131H159.021H102.816Z" fill="#282828"/>
</g>
<path fill-rule="evenodd" clip-rule="evenodd" d="M102.816 17.8495H58.497H58.4969C49.5865 17.8495 42.4131 25.0229 42.4131 33.9333V226.939C42.4131 235.85 49.5865 243.023 58.4969 243.023H58.5858H203.252H203.34C212.251 243.023 219.424 235.85 219.424 226.939L219.424 226.895L219.424 33.9333C219.424 25.0229 212.251 17.8495 203.34 17.8495H159.021H102.816Z" fill="url(#paint0_linear)"/>
<g opacity="0.4">
<path fill-rule="evenodd" clip-rule="evenodd" d="M63.3 79.5073C65.3 79.5073 85.8 79.5072 86.931 79.5073L86.865 88.1961H72.198L63.3 79.5073ZM151.402 121.329V117.007L155.802 112.685V121.329H151.402ZM196.871 206.323V197.29L202.739 191.918V206.324L196.871 206.323ZM136.735 79.5517H103.755C103.464 79.5517 103.217 79.5608 102.97 79.57C102.737 79.5786 102.504 79.5872 102.235 79.5882L97.133 85.3146L105.933 93.957V102.99L116.201 114.126H122.068V108.363L130.868 99.7189V93.956L136.735 88.1951V79.5517ZM129.401 111.245H133.801L138.201 115.567H129.401V111.245ZM89.799 158.784H85.399L80.999 163.106H89.799V158.784ZM169.003 151.581L186.605 151.581L186.605 157.343L201.272 171.75H207.139L192.471 186.155L192.67 202.703L174.276 220.768L163.136 209.205V191.918L160.203 189.037V184.715L155.803 180.394H145.535L138.202 173.19V158.784L148.469 148.7H166.069L169.003 151.581ZM85.2438 240.427C85.0701 240.411 84.8965 240.395 84.71 240.383L84.709 240.384L82.465 238.015V219.289L86.864 214.967L86.904 202.051L75.13 191.919V177.511L80.998 171.749H95.666L101.533 177.511H113.267L119.133 183.274V194.798L114.733 199.12V203.441L105.933 212.085V217.848L86.865 235.136L86.893 240.5C86.7384 240.492 86.5575 240.49 86.3764 240.488C86.1887 240.486 86.0009 240.484 85.842 240.475C85.6312 240.463 85.438 240.445 85.245 240.427L85.2438 240.427ZM105.933 132.854L110.333 128.532L114.734 132.854L113.267 134.294H111.8L110.333 132.854H105.933Z" fill="#ebdbb2"/>
<path d="M210.072 154.462H219.3V108.117L207.3 96.8395H201.271L192.471 105.484L186.605 99.7209H169.004L160.204 108.365V115.567H169.004V111.245H174.871V117.008L171.936 119.888L160.203 120.083L155.803 124.21H149.936V129.973L145.535 134.295V142.937H154.335L160.203 137.175H166.07V140.056L171.936 145.819H174.871V142.937L169.004 137.175H174.871L180.736 142.937H188.07L183.67 138.616L188.07 134.294H192.471L196.871 138.617H192.471L188.071 142.937L192.391 147.18L192.471 151.581H186.605L204.206 168.868H207.138L210.072 165.988L215.939 160.225L210.072 154.462Z" fill="#ebdbb2"/>
<path d="M60.464 102.601L42.3 84.434V154.004L48.73 160.224H57.53L72.198 174.63V157.343L80.998 148.701H86.865L95.665 140.056H104.466L100.066 135.734L108.868 125.652L100.068 117.008H86.865V128.532H80.999L75.131 122.769V117.008L83.931 108.364H91.266V102.601L82.466 93.957H67.798V102.601H60.464Z" fill="#ebdbb2"/>
</g>
<path opacity="0.4" d="M102.816 17.8495H58.497C49.5866 17.8495 42.4131 25.0229 42.4131 33.9333V79.5H219.424V33.9333C219.424 25.0229 212.251 17.8495 203.34 17.8495H159.021H102.816Z" fill="#ebdbb2"/>
<path d="M130.919 110.127H126.552V241.113H130.919V110.127Z" fill="#928374"/>
<path d="M135.285 241.113H130.919V110.127H135.285V241.113Z" fill="#ebdbb2"/>
<path d="M122.186 116.677V125.409H130.919V121.043H139.651V116.677H130.919H122.186ZM130.919 125.409V129.775H122.186V138.508H130.919V134.141H139.651V125.409H130.919ZM130.919 138.508V142.874H122.186V151.606H130.919V147.24H139.651V138.508H130.919ZM130.919 151.606V155.972H122.186V164.705H130.919V160.339H139.651V155.972V151.606H130.919ZM130.919 164.705V169.071H122.186V177.803H130.919V173.437H139.651V164.705H130.919ZM130.919 177.803V182.17H122.186V190.902H130.919V186.536H139.651V177.803H130.919ZM130.919 190.902V195.268H122.186V204.001H130.919V199.634H139.651V195.268V190.902H130.919ZM130.919 204.001V208.367H122.186V217.099H130.919V212.733H139.651V204.001H130.919ZM130.919 217.099V221.465H122.186V230.198H130.919V225.832H139.651V217.099H130.919ZM130.919 230.198V234.564H122.186V243.296H130.919V238.93H139.651V234.564V230.198H130.919Z" fill="url(#paint1_linear)"/>
<path opacity="0.4" d="M130.919 118.86V121.043H139.651V118.86H130.919ZM122.186 123.226V125.409H130.919V123.226H122.186ZM130.919 131.958V134.141H139.651V131.958H130.919ZM122.186 136.325V138.508H130.919V136.325H122.186ZM130.919 145.057V147.24H139.651V145.057H130.919ZM122.186 149.423V151.606H130.919V149.423H122.186ZM130.919 158.156V160.339H139.651V158.156H130.919ZM122.186 162.522V164.705H130.919V162.522H122.186ZM130.919 171.254V173.437H139.651V171.254H130.919ZM122.186 175.62V177.803H130.919V175.62H122.186ZM130.919 184.353V186.536H139.651V184.353H130.919ZM122.186 188.719V190.902H130.919V188.719H122.186ZM130.919 197.451V199.634H139.651V197.451H130.919ZM122.186 201.817V204.001H130.919V201.817H122.186ZM130.919 210.55V212.733H139.651V210.55H130.919ZM122.186 214.916V217.099H130.919V214.916H122.186ZM130.919 223.648V225.832H139.651V223.648H130.919ZM122.186 228.015V230.198H130.919V228.015H122.186ZM130.919 236.747V238.93H139.651V236.747H130.919ZM122.186 241.113V243.296H130.919V241.113H122.186Z" fill="#282828"/>
<path opacity="0.1" d="M122.186 97.0288C117.349 97.0288 113.454 100.923 113.454 105.761V127.592C113.454 132.43 117.349 136.325 122.186 136.325V153.789C122.186 156.208 124.134 158.156 126.552 158.156H135.285C137.704 158.156 139.651 156.208 139.651 153.789V136.325C144.489 136.325 148.383 132.43 148.383 127.592V105.761C148.383 100.923 144.489 97.0288 139.651 97.0288H122.186ZM126.552 145.057H135.285V153.789H126.552V145.057Z" fill="#282828"/>
<path d="M126.552 110.127C124.134 110.127 122.186 112.075 122.186 114.494V149.423C122.186 151.842 124.134 153.789 126.552 153.789H135.285C137.704 153.789 139.651 151.842 139.651 149.423V114.494C139.651 112.075 137.704 110.127 135.285 110.127H126.552ZM126.552 140.691H135.285V149.423H126.552V140.691Z" fill="url(#paint2_linear)"/>
<path d="M139.651 92.6626H122.186C117.363 92.6626 113.454 96.5722 113.454 101.395V123.226C113.454 128.049 117.363 131.958 122.186 131.958H139.651C144.474 131.958 148.383 128.049 148.383 123.226V101.395C148.383 96.5722 144.474 92.6626 139.651 92.6626Z" fill="#3c3836"/>
<path d="M139.651 88.2964H122.186C117.363 88.2964 113.454 92.206 113.454 97.0288V118.86C113.454 123.683 117.363 127.592 122.186 127.592H139.651C144.474 127.592 148.383 123.683 148.383 118.86V97.0288C148.383 92.206 144.474 88.2964 139.651 88.2964Z" fill="#665c54"/>
<path d="M126.552 101.395C124.134 101.395 122.186 103.342 122.186 105.761V145.057C122.186 147.476 124.134 149.423 126.552 149.423H135.285C137.704 149.423 139.651 147.476 139.651 145.057V105.761C139.651 103.342 137.704 101.395 135.285 101.395H126.552ZM126.552 136.325H135.285V145.057H126.552V136.325Z" fill="#ebdbb2"/>
<path d="M135.285 110.127C135.285 112.539 133.33 114.494 130.919 114.494C128.507 114.494 126.552 112.539 126.552 110.127V97.0288C126.552 94.6174 128.507 92.6626 130.919 92.6626C133.33 92.6626 135.285 94.6174 135.285 97.0288V110.127Z" fill="#665c54"/>
<path d="M135.285 105.761C135.285 108.173 133.33 110.127 130.919 110.127C128.507 110.127 126.552 108.173 126.552 105.761V97.0288C126.552 94.6174 128.507 92.6626 130.919 92.6626C133.33 92.6626 135.285 94.6174 135.285 97.0288V105.761Z" fill="#a89984"/>
<path d="M94.2914 63H98.6914L103.131 45.64C103.411 44.56 103.571 43.8 103.651 43.08C103.731 43.8 103.891 44.56 104.211 45.68L108.731 63H113.131L119.171 35H114.331L111.011 51.48C110.731 52.72 110.611 53.48 110.531 54.12C110.451 53.48 110.331 52.72 109.971 51.44L105.771 35H101.691L97.5714 51.48C97.2514 52.76 97.0914 53.52 97.0114 54.16C96.9314 53.52 96.7714 52.76 96.5314 51.48L93.2114 35H88.2914L94.2914 63ZM140.997 63H146.037L135.637 35H130.877L120.437 63H125.517L127.717 56.88H138.797L140.997 63ZM137.277 52.56H129.237L132.357 44.16C132.637 43.36 133.037 42.16 133.277 41.32C133.477 42.16 133.877 43.36 134.197 44.16L137.277 52.56ZM150.326 63H155.126V52.04H160.966L166.366 63H171.766L166.166 51.52C170.126 50.32 171.926 46.72 171.926 43.52C171.926 39.12 169.686 35 162.726 35H150.326V63ZM155.126 47.48V39.56H162.806C166.086 39.56 166.966 41.64 166.966 43.52C166.966 45.56 165.926 47.48 162.806 47.48H155.126Z" fill="url(#paint3_linear)"/>
<path d="M55.3326 175.174H107.332V207.176H55.3326V175.174Z" fill="#ebdbb2"/>
<path d="M59.3351 183.176V199.175H67.3326V183.176H59.3351ZM71.3351 183.176V199.175H75.3339V183.176H71.3351ZM79.3327 183.176V199.175H87.334V183.176H79.3327ZM91.3327 183.176V199.175H95.3353V183.176H91.3327ZM99.334 183.176V199.175H103.333V183.176H99.334Z" fill="#665c54"/>
<path opacity="0.3" d="M151.333 179.177V183.176H199.333V179.177H151.333ZM151.333 187.174V191.177H191.336V187.174H151.333ZM151.333 195.176V199.175H199.333V195.176H151.333ZM151.333 203.177V207.176H183.334V203.177H151.333Z" fill="#ebdbb2"/>
</g>
<defs>
<filter id="filter0_f" x="27.2909" y="3.29092" width="207.255" height="255.418" filterUnits="userSpaceOnUse" color-interpolation-filters="sRGB">
<feFlood flood-opacity="0" result="BackgroundImageFix"/>
<feBlend mode="normal" in="SourceGraphic" in2="BackgroundImageFix" result="shape"/>
<feGaussianBlur stdDeviation="7.5611" result="effect1_foregroundBlur"/>
</filter>
<linearGradient id="paint0_linear" x1="129.824" y1="17.7634" x2="130.541" y2="243.766" gradientUnits="userSpaceOnUse">
<stop stop-color="#8ec07c"/>
<stop offset="1" stop-color="#689d6a"/>
</linearGradient>
<linearGradient id="paint1_linear" x1="145.297" y1="215.473" x2="122.186" y2="149.423" gradientUnits="userSpaceOnUse">
<stop stop-color="#ebdbb2"/>
<stop offset="1" stop-color="#ebdbb2"/>
</linearGradient>
<linearGradient id="paint2_linear" x1="122.186" y1="131.958" x2="139.651" y2="131.958" gradientUnits="userSpaceOnUse">
<stop stop-color="#a89984"/>
<stop offset="0.083333" stop-color="#ebdbb2"/>
<stop offset="0.16667" stop-color="#a89984"/>
<stop offset="0.83333" stop-color="#a89984"/>
<stop offset="0.91667" stop-color="#ebdbb2"/>
<stop offset="1" stop-color="#a89984"/>
</linearGradient>
<linearGradient id="paint3_linear" x1="129.406" y1="28.9805" x2="129.442" y2="80.1687" gradientUnits="userSpaceOnUse">
<stop stop-color="#8ec07c"/>
<stop offset="1" stop-color="#689d6a"/>
</linearGradient>
<clipPath id="clip0">
<rect width="256" height="256" fill="#ebdbb2"/>
</clipPath>
</defs>
</svg>

<svg width="256" height="256" fill="none" version="1.1" viewBox="0 0 256 256" xmlns="http://www.w3.org/2000/svg">
  <path d="m102.8 17.85h-44.32c-8.91 0-16.08 7.173-16.08 16.08v193c0 8.911 7.173 16.08 16.08 16.08h144.8c8.911 0 16.08-7.173 16.08-16.08v-0.044-193c0-8.91-7.173-16.08-16.08-16.08h-100.5z" clip-rule="evenodd" fill="url(#paint0_linear)" fill-rule="evenodd"/>
  <g fill="#ebdbb2" opacity=".4">
    <path d="m63.3 79.51c2 0 22.5-1e-4 23.63 0l-0.066 8.689h-14.67l-8.898-8.689zm88.1 41.82v-4.322l4.4-4.322v8.644h-4.4zm45.47 84.99v-9.033l5.868-5.372v14.41l-5.868-1e-3zm-60.14-126.8h-32.98c-0.291 0-0.538 0.0091-0.785 0.0183-0.233 0.0086-0.466 0.0172-0.735 0.0182l-5.102 5.726 8.8 8.642v9.033l10.27 11.14h5.867v-5.763l8.8-8.644v-5.763l5.867-5.761v-8.643zm-7.334 31.69h4.4l4.4 4.322h-8.8v-4.322zm-39.6 47.54h-4.4l-4.4 4.322h8.8v-4.322zm79.2-7.203h17.6v5.762l14.67 14.41h5.867l-14.67 14.4 0.199 16.55-18.39 18.06-11.14-11.56v-17.29l-2.933-2.881v-4.322l-4.4-4.321h-10.27l-7.333-7.204v-14.41l10.27-10.08h17.6l2.934 2.881zm-83.76 88.85c-0.1737-0.016-0.3473-0.032-0.5338-0.044l-1e-3 1e-3 -2.244-2.369v-18.73l4.399-4.322 0.04-12.92-11.77-10.13v-14.41l5.868-5.762h14.67l5.867 5.762h11.73l5.866 5.763v11.52l-4.4 4.322v4.321l-8.8 8.644v5.763l-19.07 17.29 0.028 5.364c-0.1546-8e-3 -0.3355-0.01-0.5166-0.012-0.1877-2e-3 -0.3755-4e-3 -0.5344-0.013-0.2108-0.012-0.404-0.03-0.597-0.048h-0.0012zm20.69-107.6 4.4-4.322 4.401 4.322-1.467 1.44h-1.467l-1.467-1.44h-4.4z" clip-rule="evenodd" fill-rule="evenodd"/>
    <path d="m210.1 154.5h9.228v-46.34l-12-11.28h-6.029l-8.8 8.644-5.866-5.763h-17.6l-8.8 8.644v7.202h8.8v-4.322h5.867v5.763l-2.935 2.88-11.73 0.195-4.4 4.127h-5.867v5.763l-4.401 4.322v8.642h8.8l5.868-5.762h5.867v2.881l5.866 5.763h2.935v-2.882l-5.867-5.762h5.867l5.865 5.762h7.334l-4.4-4.321 4.4-4.322h4.401l4.4 4.323h-4.4l-4.4 4.32 4.32 4.243 0.08 4.401h-5.866l17.6 17.29h2.932l2.934-2.88 5.867-5.763-5.867-5.763z"/>
    <path d="m60.46 102.6-18.16-18.17v69.57l6.43 6.22h8.8l14.67 14.41v-17.29l8.8-8.642h5.867l8.8-8.645h8.801l-4.4-4.322 8.802-10.08-8.8-8.644h-13.2v11.52h-5.866l-5.868-5.763v-5.761l8.8-8.644h7.335v-5.763l-8.8-8.644h-14.67v8.644h-7.334z"/>
  </g>
  <path d="m102.8 17.85h-44.32c-8.91 0-16.08 7.173-16.08 16.08v45.57h177v-45.57c0-8.91-7.173-16.08-16.08-16.08h-100.5z" fill="#ebdbb2" opacity=".4"/>
  <path d="m130.9 110.1h-4.367v131h4.367v-131z" fill="#928374"/>
  <path d="m135.3 241.1h-4.366v-131h4.366v131z" fill="#ebdbb2"/>
  <path d="m122.2 116.7v8.732h8.733v-4.366h8.732v-4.366h-17.46zm8.733 8.732v4.366h-8.733v8.733h8.733v-4.367h8.732v-8.732h-8.732zm0 13.1v4.366h-8.733v8.732h8.733v-4.366h8.732v-8.732h-8.732zm0 13.1v4.366h-8.733v8.733h8.733v-4.366h8.732v-8.733h-8.732zm0 13.1v4.366h-8.733v8.732h8.733v-4.366h8.732v-8.732h-8.732zm0 13.1v4.367h-8.733v8.732h8.733v-4.366h8.732v-8.733h-8.732zm0 13.1v4.366h-8.733v8.733h8.733v-4.367h8.732v-8.732h-8.732zm0 13.1v4.366h-8.733v8.732h8.733v-4.366h8.732v-8.732h-8.732zm0 13.1v4.366h-8.733v8.733h8.733v-4.366h8.732v-8.733h-8.732zm0 13.1v4.366h-8.733v8.732h8.733v-4.366h8.732v-8.732h-8.732z" fill="url(#paint1_linear)"/>
  <path d="m130.9 118.9v2.183h8.732v-2.183h-8.732zm-8.733 4.366v2.183h8.733v-2.183h-8.733zm8.733 8.732v2.183h8.732v-2.183h-8.732zm-8.733 4.367v2.183h8.733v-2.183h-8.733zm8.733 8.732v2.183h8.732v-2.183h-8.732zm-8.733 4.366v2.183h8.733v-2.183h-8.733zm8.733 8.733v2.183h8.732v-2.183h-8.732zm-8.733 4.366v2.183h8.733v-2.183h-8.733zm8.733 8.732v2.183h8.732v-2.183h-8.732zm-8.733 4.366v2.183h8.733v-2.183h-8.733zm8.733 8.733v2.183h8.732v-2.183h-8.732zm-8.733 4.366v2.183h8.733v-2.183h-8.733zm8.733 8.732v2.183h8.732v-2.183h-8.732zm-8.733 4.366v2.184h8.733v-2.184h-8.733zm8.733 8.733v2.183h8.732v-2.183h-8.732zm-8.733 4.366v2.183h8.733v-2.183h-8.733zm8.733 8.732v2.184h8.732v-2.184h-8.732zm-8.733 4.367v2.183h8.733v-2.183h-8.733zm8.733 8.732v2.183h8.732v-2.183h-8.732zm-8.733 4.366v2.183h8.733v-2.183h-8.733z" fill="#282828" opacity=".4"/>
  <path d="m122.2 97.03c-4.837 0-8.732 3.894-8.732 8.732v21.83c0 4.838 3.895 8.733 8.732 8.733v17.46c0 2.419 1.948 4.367 4.366 4.367h8.733c2.419 0 4.366-1.948 4.366-4.367v-17.46c4.838 0 8.732-3.895 8.732-8.733v-21.83c0-4.838-3.894-8.732-8.732-8.732h-17.46zm4.366 48.03h8.733v8.732h-8.733v-8.732z" fill="#282828" opacity=".1"/>
  <path d="m126.6 110.1c-2.418 0-4.366 1.948-4.366 4.367v34.93c0 2.419 1.948 4.366 4.366 4.366h8.733c2.419 0 4.366-1.947 4.366-4.366v-34.93c0-2.419-1.947-4.367-4.366-4.367h-8.733zm0 30.56h8.733v8.732h-8.733v-8.732z" fill="url(#paint2_linear)"/>
  <path d="m139.7 92.66h-17.46c-4.823 0-8.732 3.91-8.732 8.732v21.83c0 4.823 3.909 8.732 8.732 8.732h17.46c4.823 0 8.732-3.909 8.732-8.732v-21.83c0-4.823-3.909-8.732-8.732-8.732z" fill="#3c3836"/>
  <path d="m139.7 88.3h-17.46c-4.823 0-8.732 3.91-8.732 8.732v21.83c0 4.823 3.909 8.732 8.732 8.732h17.46c4.823 0 8.732-3.909 8.732-8.732v-21.83c0-4.823-3.909-8.732-8.732-8.732z" fill="#665c54"/>
  <path d="m126.6 101.4c-2.418 0-4.366 1.947-4.366 4.366v39.3c0 2.419 1.948 4.366 4.366 4.366h8.733c2.419 0 4.366-1.947 4.366-4.366v-39.3c0-2.419-1.947-4.366-4.366-4.366h-8.733zm0 34.93h8.733v8.732h-8.733v-8.732z" fill="#ebdbb2"/>
  <path d="m135.3 110.1c0 2.412-1.955 4.367-4.366 4.367-2.412 0-4.367-1.955-4.367-4.367v-13.1c0-2.411 1.955-4.366 4.367-4.366 2.411 0 4.366 1.955 4.366 4.366v13.1z" fill="#665c54"/>
  <path d="m135.3 105.8c0 2.412-1.955 4.366-4.366 4.366-2.412 0-4.367-1.954-4.367-4.366v-8.732c0-2.411 1.955-4.366 4.367-4.366 2.411 0 4.366 1.955 4.366 4.366v8.732z" fill="#a89984"/>
  <path d="m94.29 63h4.4l4.44-17.36c0.28-1.08 0.44-1.84 0.52-2.56 0.08 0.72 0.24 1.48 0.56 2.6l4.52 17.32h4.4l6.04-28h-4.84l-3.32 16.48c-0.28 1.24-0.4 2-0.48 2.64-0.08-0.64-0.2-1.4-0.56-2.68l-4.2-16.44h-4.08l-4.12 16.48c-0.32 1.28-0.48 2.04-0.56 2.68-0.08-0.64-0.24-1.4-0.48-2.68l-3.32-16.48h-4.92l6 28zm46.71 0h5.04l-10.4-28h-4.76l-10.44 28h5.08l2.2-6.12h11.08l2.2 6.12zm-3.72-10.44h-8.04l3.12-8.4c0.28-0.8 0.68-2 0.92-2.84 0.2 0.84 0.6 2.04 0.92 2.84l3.08 8.4zm13.05 10.44h4.8v-10.96h5.84l5.4 10.96h5.4l-5.6-11.48c3.96-1.2 5.76-4.8 5.76-8 0-4.4-2.24-8.52-9.2-8.52h-12.4v28zm4.8-15.52v-7.92h7.68c3.28 0 4.16 2.08 4.16 3.96 0 2.04-1.04 3.96-4.16 3.96h-7.68z" fill="url(#paint3_linear)"/>
  <path d="m55.33 175.2h52v32h-52v-32z" fill="#ebdbb2"/>
  <path d="m59.34 183.2v16h7.998v-16h-7.998zm12 0v16h3.999v-16h-3.999zm7.998 0v16h8.001v-16h-8.001zm12 0v16h4.003v-16h-4.003zm8.001 0v16h3.999v-16h-3.999z" fill="#665c54"/>
  <path d="m151.3 179.2v3.999h48v-3.999h-48zm0 7.997v4.003h40v-4.003h-40zm0 8.002v3.999h48v-3.999h-48zm0 8.001v3.999h32v-3.999h-32z" fill="#ebdbb2" opacity=".3"/>
  <defs>
    <linearGradient id="paint0_linear" x1="129.8" x2="130.5" y1="17.76" y2="243.8" gradientUnits="userSpaceOnUse">
      <stop stop-color="#8ec07c" offset="0"/>
      <stop stop-color="#689d6a" offset="1"/>
    </linearGradient>
    <linearGradient id="paint1_linear" x1="145.3" x2="122.2" y1="215.5" y2="149.4" gradientUnits="userSpaceOnUse">
      <stop stop-color="#ebdbb2" offset="0"/>
      <stop stop-color="#ebdbb2" offset="1"/>
    </linearGradient>
    <linearGradient id="paint2_linear" x1="122.2" x2="139.7" y1="132" y2="132" gradientUnits="userSpaceOnUse">
      <stop stop-color="#a89984" offset="0"/>
      <stop stop-color="#ebdbb2" offset=".08333"/>
      <stop stop-color="#a89984" offset=".1667"/>
      <stop stop-color="#a89984" offset=".8333"/>
      <stop stop-color="#ebdbb2" offset=".9167"/>
      <stop stop-color="#a89984" offset="1"/>
    </linearGradient>
    <linearGradient id="paint3_linear" x1="129.4" x2="129.4" y1="28.98" y2="80.17" gradientUnits="userSpaceOnUse">
      <stop stop-color="#8ec07c" offset="0"/>
      <stop stop-color="#689d6a" offset="1"/>
    </linearGradient>
  </defs>
</svg>
